X:1
T: Jig in A
C:
R:Jig
Q:180
K:A
M:6/8
L:1/16
|:A2|E2A2A2 A2G2A2|B2d2d2 d2B2d2|e2a2e2 d2B2G2|A2B2A2 G2F2E2|
E2A2A2 A2G2A2|B2d2d2 d2B2d2|e2a2e2 d2B2G2|B2A2A2 A4:|
|:cd|e2a2a2 e6|e2a2a2 b2a2g2|e2a2a2 e6|B2G2B2 d2B2G2|
e2a2a2 e6|e2a2a2 b2a2g2|e2a2e2 d2B2G2|B2A2A2 A4:|
